X:1
T:Title
%%score { ( 1 3 ) | ( 2 4 ) }
L:1/8
M:4/4
K:Eb
V:1 treble nm="Grand Piano"
V:3 treble 
V:2 bass 
V:4 bass 
V:1
 z4 z2 z[Q:1/4=100] E | G2 GG G2 FE | B2 B>B c<B- BB | c2 de B2 AG | [EG]2 [EF]>[EG] [DF]3 [FA] | %5
 G2 GG G2 FE | [GB]2 [GB]>[GB] [Ac]<[GB]- [GB]B | e2 dc B2 EA |[M:7/8] G2 [DF]>[DF] E3 | %9
[M:1/4] E>F |[M:4/4] G6 z2 | E6 z2 | e6 z2 | [GB]6 z2 | e2 e2 z2 [Ac]2 | %15
 [GB]>[_G=A] [=GB]c [EGB]2 E-[CEF] | [EG]4 [DF]4 |[M:7/8] E-E-E- E3 z |] %18
V:2
 z4 z2 z [E,G,B,] | [E,B,E]2 [E,B,E][E,B,E] [E,B,E]2 [E,A,E][E,G,] | %2
 [E,G,E]2 [E,G,E]>[E,G,E] [E,A,E]<[E,G,E]- [E,G,E][E,G,E] | %3
 [A,E]2 [A,B,E][A,CE] [G,B,E]2 [F,B,D][E,B,E] | [C,C]2 [F,=A,]>[F,A,] [B,,B,]3 [D,B,] | %5
 [E,B,E]2 [E,B,E][E,B,E] [E,B,E]2 [E,A,E][E,G,] | %6
 [E,E]2 [E,E]>[E,E] [E,E]<[E,E]- [E,E][K:treble][G,E] | [A,CA]2 [A,DA][A,EA] [G,E]2 [G,_D][A,CF] | %8
[M:7/8][K:bass] [B,E]2 [B,,A,]>[B,,A,] [E,G,B,]3 |[M:1/4] z z/ E/ |[M:4/4] E6 z2 | z2 A,A, G,2 z2 | %12
 z2[K:treble] [A,C]>[A,C] [A,C]2 [A,C][A,EA] | [E,E]2 E,E, E,2 E,2 | %14
 .[E,B,]2 .[E,C]2 [E,B,]2 .[E,B,]2 | [E,E]2 z A E,2 G,A, | B,2 B,,B,, B,,2 B,,B,, | %17
[M:7/8] z2 A, A, G,2 z |] %18
V:3
 x8 | x8 | x8 | x8 | x8 | x8 | x8 | x8 |[M:7/8] x7 |[M:1/4] x2 |[M:4/4] z2 B,>B, B,2 [A,DF][B,DG] | %11
 [G,B,]2 CC B,2 G>B | z2 A>A A2 Ac | z2 EE E2 [EGB]2 | G[_DB]=A[=B,_A] [Ge]2 z E | z4 z2 ._D2 | %16
 z2 B,B, A,2 A,[A,DF] |[M:7/8] [G,B,]2 C C B,2 z |] %18
V:4
 x8 | x8 | x8 | x8 | x8 | x8 | x7[K:treble] x | x8 |[M:7/8][K:bass] x7 |[M:1/4] x2 | %10
[M:4/4] z2 E,>E, E,2 B,,B,, | E,6 z2 | x2[K:treble] x6 | x8 | x8 | z2 [E,E]2 z4 | x8 | %17
[M:7/8] E,-E,-E,- E,3 z |] %18

